src/assets/img/networks/binance-smart-chain.svg

<?xml version="1.0" encoding="UTF-8"?>
<svg viewBox="0 0 48 48" xmlns="http://www.w3.org/2000/svg">
<path d="m24 0c13.256 0 24 10.744 24 24s-10.744 24-24 24-24-10.744-24-24 10.744-24 24-24z" clip-rule="evenodd" fill="#F0B90B" fill-rule="evenodd"/>
<path d="m13.19 24 0.0173 6.3462 5.3923 3.173v3.7154l-8.5481-5.0134v-10.077l3.1385 1.8558zm0-6.3462v3.6981l-3.1404-1.8577v-3.698l3.1404-1.8577 3.1557 1.8577-3.1557 1.8576zm7.6615-1.8576 3.1404-1.8577 3.1558 1.8577-3.1558 1.8576-3.1404-1.8576z" fill="#fff"/>
<path d="m15.46 29.031v-3.7154l3.1404 1.8577v3.6981l-3.1404-1.8404zm5.3923 5.8192 3.1404 1.8577 3.1558-1.8577v3.6981l-3.1558 1.8577-3.1404-1.8577v-3.6981zm10.8-19.054 3.1404-1.8577 3.1558 1.8577v3.698l-3.1558 1.8577v-3.6981l-3.1404-1.8576zm3.1404 14.55 0.0173-6.3462 3.1404-1.8577v10.077l-8.5481 5.0135v-3.7154l5.3904-3.1711z" fill="#fff"/>
<path d="m32.54 29.031-3.1404 1.8404v-3.6981l3.1404-1.8577v3.7154z" fill="#fff"/>
<path d="m32.54 18.969 0.0173 3.7154-5.4077 3.1731v6.3615l-3.1404 1.8404-3.1404-1.8404v-6.3615l-5.4077-3.1731v-3.7154l3.1539-1.8577 5.375 3.1885 5.4077-3.1885 3.1557 1.8577h-0.0134zm-17.081-6.3442 8.5327-5.0308 8.5481 5.0308-3.1404 1.8577-5.4077-3.1885-5.3923 3.1885-3.1404-1.8577z" fill="#fff"/>
</svg>

<svg width="48" height="48" viewBox="0 0 48 48" fill="none" xmlns="http://www.w3.org/2000/svg">
<path fill-rule="evenodd" clip-rule="evenodd" d="M24 0C37.2558 0 48 10.7442 48 24C48 37.2558 37.2558 48 24 48C10.7442 48 0 37.2558 0 24C0 10.7442 10.7442 0 24 0Z" fill="#F0B90B"/>
<path d="M13.1904 24L13.2077 30.3462L18.6 33.5192V37.2346L10.0519 32.2212V22.1442L13.1904 24ZM13.1904 17.6538V21.3519L10.05 19.4942V15.7962L13.1904 13.9385L16.3461 15.7962L13.1904 17.6538ZM20.8519 15.7962L23.9923 13.9385L27.1481 15.7962L23.9923 17.6538L20.8519 15.7962Z" fill="white"/>
<path d="M15.4596 29.0308V25.3154L18.6 27.1731V30.8712L15.4596 29.0308ZM20.8519 34.85L23.9923 36.7077L27.1481 34.85V38.5481L23.9923 40.4058L20.8519 38.5481V34.85ZM31.6519 15.7962L34.7923 13.9385L37.9481 15.7962V19.4942L34.7923 21.3519V17.6538L31.6519 15.7962ZM34.7923 30.3462L34.8096 24L37.95 22.1423V32.2192L29.4019 37.2327V33.5173L34.7923 30.3462Z" fill="white"/>
<path d="M32.5404 29.0308L29.4 30.8712V27.1731L32.5404 25.3154V29.0308Z" fill="white"/>
<path d="M32.5404 18.9692L32.5577 22.6846L27.15 25.8577V32.2192L24.0096 34.0596L20.8692 32.2192V25.8577L15.4615 22.6846V18.9692L18.6154 17.1115L23.9904 20.3L29.3981 17.1115L32.5538 18.9692H32.5404ZM15.4596 12.625L23.9923 7.59423L32.5404 12.625L29.4 14.4827L23.9923 11.2942L18.6 14.4827L15.4596 12.625Z" fill="white"/>
</svg>
